X: 2
T:POLKA 2
M:4/4
L:1/8
Q:1/4=100
K:C
|:ecGc e/2c/2e/2c/2Gc|B/2c/2d/2e/2f/2e/2d/2c/2 B/2c/2d/2f/2ec|
ecGc e/2c/2e/2c/2Gc|B/2c/2d/2e/2f/2e/2d/2c/2 B/2c/2d/2B/2c2:|!
|:Gc/2d/2ee e/2c/2e/2g/2f2|dd/2e/2ff f/2d/2f/2a/2g2|Gc/2d/2ee e/2c/2e/2g
